X: 1
T: Mr Charles Graham
C: J.Bowie
R: strathspey
B: RSCDS 20-__
Z: 2006 John Chambers <jc:trillian.mit.edu>
M: C
L: 1/16
K: A
cB \
| "A"AE3 "E7"E3D "A"CE3 A,3c | "B(m)"BF3  B3A "E7"GB3  B3c \
| "A"AE3     E3A "D"FA3 D3f  | "E7"  e2c2 Bcde "A"c2A2 A2 :|
fg \
| "A"a2e2 e2dc ABcd e2c2 | "D"df3   "A"ce3 "Bm"f2B2 "E7"B2fg \
| "A"a2e2 e2dc ABcd e2c2 | "D"f2d2 "E7"B2cd "A"c2A2 A2 ||
fg \
| "A"a2e2 e2dc ABcd e2c2 | "D"df3   "A"ce3 "Bm"f2B2 "E7"B2cB \
| "A"AE3  cA3  e2c2 a2e2 | "D"f2d2 "E7"Bcde "A"c2A2 A2 |]
